assets/icons/projecet icon.svg

<svg xmlns="http://www.w3.org/2000/svg" width="24" height="24" viewBox="0 0 24 24"><path d="M12 0l-11 6v12.131l11 5.869 11-5.869v-12.066l-11-6.065zm8.063 6.73l-2.267 1.165-5.796-3.098-5.705 3.018-2.245-1.2 7.945-4.333 8.068 4.448zm-13.063 3.73l4 2.139v3.807l-4-2.052v-3.894zm5.01.411l-3.588-1.918 3.573-1.891 3.64 1.945-3.625 1.864zm4.99-.317v3.8l-4 2.052v-3.796l4-2.056zm-14-2.233l2 1.07v6.185l6 3.077v2.547l-8-4.268v-8.611zm10 12.879v-2.546l6-3.077v-6.052l2-1.028v8.435l-8 4.268z"/></svg>

<?xml version="1.0" encoding="utf-8"?>
<!-- Generator: Adobe Illustrator 24.1.1, SVG Export Plug-In . SVG Version: 6.00 Build 0)  -->
<svg version="1.1" id="Layer_1" xmlns="http://www.w3.org/2000/svg" xmlns:xlink="http://www.w3.org/1999/xlink" x="0px" y="0px"
	 viewBox="0 0 24 24" style="enable-background:new 0 0 24 24;" xml:space="preserve">
<style type="text/css">
	.st0{fill:#E6E6E6;}
</style>
<path class="st0" d="M12,0L1,6v12.1L12,24l11-5.9V6.1C23,6.1,12,0,12,0z M20.1,6.7l-2.3,1.2L12,4.8l-5.7,3L4.1,6.6L12,2.3
	C12,2.3,20.1,6.7,20.1,6.7z M7,10.5l4,2.1v3.8l-4-2.1V10.5z M12,10.9L8.4,9L12,7.1L15.6,9L12,10.9z M17,10.6v3.8l-4,2.1v-3.8
	C13,12.6,17,10.6,17,10.6z M3,8.3l2,1.1v6.2l6,3.1v2.5l-8-4.3C3,16.9,3,8.3,3,8.3z M13,21.2v-2.5l6-3.1V9.5l2-1v8.4
	C21,16.9,13,21.2,13,21.2z"/>
</svg>
